icons/folder_type_azure.svg

<svg xmlns="http://www.w3.org/2000/svg" viewBox="0 0 32 32"><defs><linearGradient id="a" x1="-231.442" x2="-231.459" y1="265.978" y2="265.903" gradientTransform="matrix(161.096 0 0 -241.217 37302.352 64171.913)" gradientUnits="userSpaceOnUse"><stop offset="0" stop-color="#114a8b"/><stop offset="1" stop-color="#0669bc"/></linearGradient><linearGradient id="b" x1="-231.869" x2="-231.875" y1="265.942" y2="265.94" gradientTransform="matrix(224.69 0 0 -241.214 52119.718 64171.207)" gradientUnits="userSpaceOnUse"><stop offset="0" stop-opacity=".3"/><stop offset=".071" stop-opacity=".2"/><stop offset=".321" stop-opacity=".1"/><stop offset=".623" stop-opacity=".05"/><stop offset="1" stop-opacity="0"/></linearGradient><linearGradient id="c" x1="-232.004" x2="-231.984" y1="265.98" y2="265.906" gradientTransform="matrix(169.755 0 0 -241.217 39406.126 64171.912)" gradientUnits="userSpaceOnUse"><stop offset="0" stop-color="#3ccbf4"/><stop offset="1" stop-color="#2892df"/></linearGradient></defs><path d="M27.5 5.5h-9.3l-2.1 4.2H4.4v16.8h25.2v-21Zm0 4.2h-8.2l1.1-2.1h7.1Z" style="fill:#5799b5"/><path d="M17.2 12.125h5.928l-6.156 18.232a.945.945 0 0 1-.9.643h-4.608a.944.944 0 0 1-.894-1.245l5.73-16.987a.945.945 0 0 1 .9-.643Z" style="fill:url(#a)"/><path d="M25.811 24.354h-9.4a.435.435 0 0 0-.3.753l6.04 5.637A.95.95 0 0 0 22.8 31h5.322Z" style="fill:#0078d4"/><path d="M17.2 12.125a.937.937 0 0 0-.9.655l-5.723 16.959A.942.942 0 0 0 11.466 31H16.2a1.011 1.011 0 0 0 .776-.66l1.141-3.364 4.077 3.8A.965.965 0 0 0 22.8 31h5.3l-2.326-6.646h-6.78l4.149-12.23Z" style="fill:url(#b)"/><path d="M24.769 12.767a.944.944 0 0 0-.894-.642h-6.607a.944.944 0 0 1 .894.642L23.9 29.754A.944.944 0 0 1 23 31h6.606a.944.944 0 0 0 .894-1.246Z" style="fill:url(#c)"/></svg>

<svg xmlns="http://www.w3.org/2000/svg" xmlns:xlink="http://www.w3.org/1999/xlink" viewBox="0 0 32 32"><defs><linearGradient id="a" x1="-231.442" y1="265.978" x2="-231.459" y2="265.903" gradientTransform="matrix(161.096, 0, 0, -241.217, 37302.352, 64171.913)" gradientUnits="userSpaceOnUse"><stop offset="0" stop-color="#114a8b"/><stop offset="1" stop-color="#0669bc"/></linearGradient><linearGradient id="b" x1="-231.869" y1="265.942" x2="-231.875" y2="265.94" gradientTransform="matrix(224.69, 0, 0, -241.214, 52119.718, 64171.207)" gradientUnits="userSpaceOnUse"><stop offset="0" stop-opacity="0.3"/><stop offset="0.071" stop-opacity="0.2"/><stop offset="0.321" stop-opacity="0.1"/><stop offset="0.623" stop-opacity="0.05"/><stop offset="1" stop-opacity="0"/></linearGradient><linearGradient id="c" x1="-232.004" y1="265.98" x2="-231.984" y2="265.906" gradientTransform="matrix(169.755, 0, 0, -241.217, 39406.126, 64171.912)" gradientUnits="userSpaceOnUse"><stop offset="0" stop-color="#3ccbf4"/><stop offset="1" stop-color="#2892df"/></linearGradient></defs><title>folder_type_azure</title><path d="M27.5,5.5H18.2L16.1,9.7H4.4V26.5H29.6V5.5Zm0,4.2H19.3l1.1-2.1h7.1Z" style="fill:#5799b5"/><path d="M17.2,12.125h5.928L16.972,30.357a.945.945,0,0,1-.9.643H11.464a.944.944,0,0,1-.894-1.245L16.3,12.768a.945.945,0,0,1,.9-.643Z" style="fill:url(#a)"/><path d="M25.811,24.354h-9.4a.435.435,0,0,0-.3.753l6.04,5.637A.95.95,0,0,0,22.8,31h5.322Z" style="fill:#0078d4"/><path d="M17.2,12.125a.937.937,0,0,0-.9.655L10.577,29.739A.942.942,0,0,0,11.466,31H16.2a1.011,1.011,0,0,0,.776-.66l1.141-3.364,4.077,3.8A.965.965,0,0,0,22.8,31h5.3l-2.326-6.646-6.78,0,4.149-12.23Z" style="fill:url(#b)"/><path d="M24.769,12.767a.944.944,0,0,0-.894-.642H17.268a.944.944,0,0,1,.894.642L23.9,29.754A.944.944,0,0,1,23,31h6.606a.944.944,0,0,0,.894-1.246Z" style="fill:url(#c)"/></svg>
